Newaita-dark/apps/64/atomix.svg

<svg height="64" viewBox="0 0 64 64" width="64" xmlns="http://www.w3.org/2000/svg" xmlns:xlink="http://www.w3.org/1999/xlink"><linearGradient id="a"><stop offset="0" stop-opacity=".313726"/><stop offset=".222222" stop-opacity=".27451"/><stop offset="1" stop-opacity="0"/></linearGradient><radialGradient id="b" cx="450.908936" cy="189.579361" gradientTransform="matrix(.00000035 -.156265 -.281277 -.0000002 94.999997 127.190659)" gradientUnits="userSpaceOnUse" r="21.166656" xlink:href="#a"/><radialGradient id="c" cx="450.908936" cy="189.579361" gradientTransform="matrix(-.00000035 .156265 .281277 .0000002 -18.263511 -15.054964)" gradientUnits="userSpaceOnUse" r="21.166656" xlink:href="#a"/><radialGradient id="d" cx="450.908936" cy="189.579361" gradientTransform="matrix(-.00000035 -.156265 .281277 -.0000002 -18.263511 127.190659)" gradientUnits="userSpaceOnUse" r="21.166656" xlink:href="#a"/><radialGradient id="e" cx="450.908936" cy="189.579361" gradientTransform="matrix(.00000035 .156265 -.281277 .0000002 94.999994 -15.054965)" gradientUnits="userSpaceOnUse" r="21.166656" xlink:href="#a"/><linearGradient id="f" gradientTransform="matrix(.0267201 0 0 .125012 30.884466 26.877567)" gradientUnits="userSpaceOnUse" x1="255.323059" x2="255.323044" y1="233.5" y2="254.666656"><stop offset="0" stop-opacity=".27451"/><stop offset="1" stop-opacity="0"/></linearGradient><linearGradient id="g" gradientUnits="userSpaceOnUse" x1="31.753048" x2="31.753048" y1="19.02264550002" y2="56.067868"><stop offset="0" stop-color="#78909c"/><stop offset="1" stop-color="#607d8b"/></linearGradient><linearGradient id="h"><stop offset="0" stop-color="#ffca28"/><stop offset="1" stop-color="#ffd54f"/></linearGradient><linearGradient id="i" gradientUnits="userSpaceOnUse" x1="1160" x2="1160" xlink:href="#h" y1="495.118103" y2="175.118118"/><linearGradient id="j" gradientUnits="userSpaceOnUse" x1="84.666664" x2="84.666664" xlink:href="#h" y1="127.666656" y2="43"/><linearGradient id="k" gradientUnits="userSpaceOnUse" x1="38.368276" x2="38.368276" y1="56.06789790428" y2="19.02266388664"><stop offset="0" stop-color="#b0bec5"/><stop offset="1" stop-color="#cfd8dc"/></linearGradient><path d="m42.335938 56.066406h5.292968v-2.644531h-5.292968zm0 0" fill="url(#b)"/><path d="m34.398438 56.066406h-5.292969v2.648438h5.292969zm0 0" fill="url(#c)"/><path d="m34.398438 56.066406h-5.292969v-2.644531h5.292969zm0 0" fill="url(#d)"/><path d="m42.335938 56.066406h5.292968v2.648438h-5.292968zm0 0" fill="url(#e)"/><path d="m34.398438 55.40625h7.9375v3.308594h-7.9375zm0 0" fill="url(#f)"/><path d="m38.367188 19.023438c10.230468 0 18.523437 8.292968 18.523437 18.523437 0 10.226563-8.292969 18.519531-18.523437 18.519531-10.230469 0-18.523438-8.292968-18.523438-18.519531 0-10.230469 8.292969-18.523437 18.523438-18.523437zm0 0" fill="url(#g)"/><path d="m38.367188 19.023438c-10.261719 0-18.523438 8.261718-18.523438 18.523437 0 .054687.003906.109375.003906.164063.085938-10.183594 8.3125-18.359376 18.519532-18.359376 10.207031 0 18.433593 8.175782 18.523437 18.359376 0-.054688 0-.109376 0-.164063 0-10.261719-8.261719-18.523437-18.523437-18.523437zm0 0" fill="#fff" fill-opacity=".392157"/><path d="m1159.96803 175.140764-160.024097 160.024097h80.071098v119.988548c0 22.084507 17.832943 39.91745 40.035549 39.91745h79.952999c22.202605 0 40.035549-17.832943 40.035549-39.91745v-119.988548h79.952999zm0 0" fill="url(#i)" stroke="#212121" stroke-linecap="square" stroke-linejoin="bevel" stroke-width="11.338583" transform="scale(.0330761)"/><path d="m42.339707 85.346318 42.339707 42.30846v-21.15423h31.746968c5.843192 0 10.561491-4.718299 10.561491-10.592738v-21.15423c0-5.874439-4.718299-10.592739-10.561491-10.592739h-31.746968v-21.154229zm0 0" fill="url(#j)" stroke="#212121" stroke-linecap="square" stroke-linejoin="bevel" stroke-width="3" transform="matrix(.125012 0 0 .125012 0 26.877566)"/><path d="m38.367188 56.066406c-10.261719 0-18.523438-8.257812-18.523438-18.519531 0-.058594.003906-.113281.003906-.167969.085938 10.1875 8.3125 18.359375 18.519532 18.359375 10.207031 0 18.433593-8.171875 18.523437-18.359375v.167969c0 10.261719-8.261719 18.519531-18.523437 18.519531zm0 0" fill-opacity=".235294"/><path d="m38.367188 18.835938c-10.359376 0-18.710938 8.347656-18.710938 18.710937 0 10.359375 8.351562 18.707031 18.710938 18.707031 10.363281 0 18.710937-8.347656 18.710937-18.707031 0-10.363281-8.347656-18.710937-18.710937-18.710937zm0 .375c10.160156 0 18.335937 8.171874 18.335937 18.335937 0 10.160156-8.175781 18.332031-18.335937 18.332031-10.160157 0-18.335938-8.171875-18.335938-18.332031 0-10.164063 8.175781-18.335937 18.335938-18.335937zm0 0" fill="#212121"/><path d="m33.074219 32.253906c-.730469 0-1.320313.589844-1.320313 1.320313v7.941406c0 .730469.589844 1.320313 1.320313 1.320313h1.324219c.734374 0 1.324218-.589844 1.324218-1.320313v-2.648437h5.292969v2.648437c0 .730469.589844 1.320313 1.320313 1.320313h1.324218c.734375 0 1.324219-.589844 1.324219-1.320313v-7.941406c0-.730469-.589844-1.320313-1.324219-1.320313h-1.324218c-.730469 0-1.320313.589844-1.320313 1.320313v2.648437h-5.292969v-2.648437c0-.730469-.589844-1.320313-1.324218-1.320313zm0 0" fill="url(#k)"/><path d="m33.074219 32.253906c-.730469 0-1.320313.589844-1.320313 1.320313v.496093c0-.730468.589844-1.320312 1.320313-1.320312h1.324219c.734374 0 1.324218.589844 1.324218 1.320312v-.496093c0-.730469-.589844-1.320313-1.324218-1.320313zm9.261719 0c-.730469 0-1.320313.589844-1.320313 1.320313v.496093c0-.730468.589844-1.320312 1.320313-1.320312h1.324218c.734375 0 1.324219.589844 1.324219 1.320312v-.496093c0-.730469-.589844-1.320313-1.324219-1.320313zm-6.613282 3.96875v.496094h5.292969v-.496094zm0 0" fill="#fff" fill-opacity=".890323"/><path d="m35.722656 38.867188v.664062h5.292969v-.664062zm-3.96875 2.648437v.660156c0 .734375.589844 1.324219 1.320313 1.324219h1.324219c.734374 0 1.324218-.589844 1.324218-1.324219v-.660156c0 .730469-.589844 1.320313-1.324218 1.320313h-1.324219c-.730469 0-1.320313-.589844-1.320313-1.320313zm9.261719 0v.660156c0 .734375.589844 1.324219 1.320313 1.324219h1.324218c.734375 0 1.324219-.589844 1.324219-1.324219v-.660156c0 .730469-.589844 1.320313-1.324219 1.320313h-1.324218c-.730469 0-1.320313-.589844-1.320313-1.320313zm0 0" fill-opacity=".235294"/><path d="m999.943933 975.14315c-22.084507 0-39.91745 17.832944-39.91745 39.91745v240.095195c0 22.084507 17.832943 39.91745 39.91745 39.91745h40.035549c22.202605 0 40.035549-17.832943 40.035549-39.91745v-80.071098h160.024097v80.071098c0 22.084507 17.832943 39.91745 39.91745 39.91745h40.035549c22.202605 0 40.035549-17.832943 40.035549-39.91745v-240.095195c0-22.084506-17.832944-39.91745-40.035549-39.91745h-40.035549c-22.084507 0-39.91745 17.832944-39.91745 39.91745v80.071098h-160.024097v-80.071098c0-22.084506-17.832944-39.91745-40.035549-39.91745zm0 0" fill="none" stroke="#212121" stroke-linecap="square" stroke-linejoin="bevel" stroke-width="11.338583" transform="scale(.0330761)"/></svg>

<?xml version="1.0" encoding="UTF-8"?>
<svg xmlns="http://www.w3.org/2000/svg" xmlns:xlink="http://www.w3.org/1999/xlink" width="64px" height="64px" viewBox="0 0 64 64" version="1.1">
<defs>
<radialGradient id="radial0" gradientUnits="userSpaceOnUse" cx="450.908936" cy="189.579361" fx="450.908936" fy="189.579361" r="21.166656" gradientTransform="matrix(0.000000348341,-0.156265,-0.281277,-0.000000203077,94.999997,127.190659)">
<stop offset="0" style="stop-color:rgb(0%,0%,0%);stop-opacity:0.313726;"/>
<stop offset="0.222222" style="stop-color:rgb(0%,0%,0%);stop-opacity:0.27451;"/>
<stop offset="1" style="stop-color:rgb(0%,0%,0%);stop-opacity:0;"/>
</radialGradient>
<radialGradient id="radial1" gradientUnits="userSpaceOnUse" cx="450.908936" cy="189.579361" fx="450.908936" fy="189.579361" r="21.166656" gradientTransform="matrix(-0.000000348341,0.156265,0.281277,0.000000203077,-18.263511,-15.054964)">
<stop offset="0" style="stop-color:rgb(0%,0%,0%);stop-opacity:0.313726;"/>
<stop offset="0.222222" style="stop-color:rgb(0%,0%,0%);stop-opacity:0.27451;"/>
<stop offset="1" style="stop-color:rgb(0%,0%,0%);stop-opacity:0;"/>
</radialGradient>
<radialGradient id="radial2" gradientUnits="userSpaceOnUse" cx="450.908936" cy="189.579361" fx="450.908936" fy="189.579361" r="21.166656" gradientTransform="matrix(-0.000000348341,-0.156265,0.281277,-0.000000203077,-18.263511,127.190659)">
<stop offset="0" style="stop-color:rgb(0%,0%,0%);stop-opacity:0.313726;"/>
<stop offset="0.222222" style="stop-color:rgb(0%,0%,0%);stop-opacity:0.27451;"/>
<stop offset="1" style="stop-color:rgb(0%,0%,0%);stop-opacity:0;"/>
</radialGradient>
<radialGradient id="radial3" gradientUnits="userSpaceOnUse" cx="450.908936" cy="189.579361" fx="450.908936" fy="189.579361" r="21.166656" gradientTransform="matrix(0.000000348341,0.156265,-0.281277,0.000000203077,94.999994,-15.054965)">
<stop offset="0" style="stop-color:rgb(0%,0%,0%);stop-opacity:0.313726;"/>
<stop offset="0.222222" style="stop-color:rgb(0%,0%,0%);stop-opacity:0.27451;"/>
<stop offset="1" style="stop-color:rgb(0%,0%,0%);stop-opacity:0;"/>
</radialGradient>
<linearGradient id="linear0" gradientUnits="userSpaceOnUse" x1="255.323059" y1="233.5" x2="255.323044" y2="254.666656" gradientTransform="matrix(0.0267201,0,0,0.125012,30.884466,26.877567)">
<stop offset="0" style="stop-color:rgb(0%,0%,0%);stop-opacity:0.27451;"/>
<stop offset="1" style="stop-color:rgb(0%,0%,0%);stop-opacity:0;"/>
</linearGradient>
<linearGradient id="linear1" gradientUnits="userSpaceOnUse" x1="254" y1="-62.833332" x2="254" y2="233.5" gradientTransform="matrix(0.125012,0,0,0.125012,0,26.877566)">
<stop offset="0" style="stop-color:rgb(47.058824%,56.470591%,61.176473%);stop-opacity:1;"/>
<stop offset="1" style="stop-color:rgb(37.64706%,49.019608%,54.509807%);stop-opacity:1;"/>
</linearGradient>
<linearGradient id="linear2" gradientUnits="userSpaceOnUse" x1="1160" y1="495.118103" x2="1160" y2="175.118118" gradientTransform="matrix(1,0,0,1,0,0)">
<stop offset="0" style="stop-color:rgb(100%,79.215688%,15.686275%);stop-opacity:1;"/>
<stop offset="1" style="stop-color:rgb(100%,83.529413%,30.980393%);stop-opacity:1;"/>
</linearGradient>
<linearGradient id="linear3" gradientUnits="userSpaceOnUse" x1="84.666664" y1="127.666656" x2="84.666664" y2="43" >
<stop offset="0" style="stop-color:rgb(100%,79.215688%,15.686275%);stop-opacity:1;"/>
<stop offset="1" style="stop-color:rgb(100%,83.529413%,30.980393%);stop-opacity:1;"/>
</linearGradient>
<linearGradient id="linear4" gradientUnits="userSpaceOnUse" x1="1160" y1="1695.118164" x2="1160" y2="575.118103" gradientTransform="matrix(0.0330761,0,0,0.0330761,0,0)">
<stop offset="0" style="stop-color:rgb(69.01961%,74.509805%,77.254903%);stop-opacity:1;"/>
<stop offset="1" style="stop-color:rgb(81.176472%,84.705883%,86.274511%);stop-opacity:1;"/>
</linearGradient>
</defs>
<g id="surface1">
<path style=" stroke:none;fill-rule:nonzero;fill:url(#radial0);" d="M 42.335938 56.066406 L 47.628906 56.066406 L 47.628906 53.421875 L 42.335938 53.421875 Z M 42.335938 56.066406 "/>
<path style=" stroke:none;fill-rule:nonzero;fill:url(#radial1);" d="M 34.398438 56.066406 L 29.105469 56.066406 L 29.105469 58.714844 L 34.398438 58.714844 Z M 34.398438 56.066406 "/>
<path style=" stroke:none;fill-rule:nonzero;fill:url(#radial2);" d="M 34.398438 56.066406 L 29.105469 56.066406 L 29.105469 53.421875 L 34.398438 53.421875 Z M 34.398438 56.066406 "/>
<path style=" stroke:none;fill-rule:nonzero;fill:url(#radial3);" d="M 42.335938 56.066406 L 47.628906 56.066406 L 47.628906 58.714844 L 42.335938 58.714844 Z M 42.335938 56.066406 "/>
<path style=" stroke:none;fill-rule:nonzero;fill:url(#linear0);" d="M 34.398438 55.40625 L 42.335938 55.40625 L 42.335938 58.714844 L 34.398438 58.714844 Z M 34.398438 55.40625 "/>
<path style=" stroke:none;fill-rule:nonzero;fill:url(#linear1);" d="M 38.367188 19.023438 C 48.597656 19.023438 56.890625 27.316406 56.890625 37.546875 C 56.890625 47.773438 48.597656 56.066406 38.367188 56.066406 C 28.136719 56.066406 19.84375 47.773438 19.84375 37.546875 C 19.84375 27.316406 28.136719 19.023438 38.367188 19.023438 Z M 38.367188 19.023438 "/>
<path style=" stroke:none;fill-rule:nonzero;fill:rgb(100%,100%,100%);fill-opacity:0.392157;" d="M 38.367188 19.023438 C 28.105469 19.023438 19.84375 27.285156 19.84375 37.546875 C 19.84375 37.601562 19.847656 37.65625 19.847656 37.710938 C 19.933594 27.527344 28.160156 19.351562 38.367188 19.351562 C 48.574219 19.351562 56.800781 27.527344 56.890625 37.710938 C 56.890625 37.65625 56.890625 37.601562 56.890625 37.546875 C 56.890625 27.285156 48.628906 19.023438 38.367188 19.023438 Z M 38.367188 19.023438 "/>
<path style="fill-rule:nonzero;fill:url(#linear2);stroke-width:11.338583;stroke-linecap:square;stroke-linejoin:bevel;stroke:rgb(12.941177%,12.941177%,12.941177%);stroke-opacity:1;stroke-miterlimit:4;" d="M 1159.96803 175.140764 L 999.943933 335.164861 L 1080.015031 335.164861 L 1080.015031 455.153409 C 1080.015031 477.237916 1097.847974 495.070859 1120.05058 495.070859 L 1200.003579 495.070859 C 1222.206184 495.070859 1240.039128 477.237916 1240.039128 455.153409 L 1240.039128 335.164861 L 1319.992127 335.164861 Z M 1159.96803 175.140764 " transform="matrix(0.0330761,0,0,0.0330761,0,0)"/>
<path style="fill-rule:nonzero;fill:url(#linear3);stroke-width:3;stroke-linecap:square;stroke-linejoin:bevel;stroke:rgb(12.941177%,12.941177%,12.941177%);stroke-opacity:1;stroke-miterlimit:4;" d="M 42.339707 85.346318 L 84.679414 127.654778 L 84.679414 106.500548 L 116.426382 106.500548 C 122.269574 106.500548 126.987873 101.782249 126.987873 95.90781 L 126.987873 74.75358 C 126.987873 68.879141 122.269574 64.160841 116.426382 64.160841 L 84.679414 64.160841 L 84.679414 43.006612 Z M 42.339707 85.346318 " transform="matrix(0.125012,0,0,0.125012,0,26.877566)"/>
<path style=" stroke:none;fill-rule:nonzero;fill:rgb(0%,0%,0%);fill-opacity:0.235294;" d="M 38.367188 56.066406 C 28.105469 56.066406 19.84375 47.808594 19.84375 37.546875 C 19.84375 37.488281 19.847656 37.433594 19.847656 37.378906 C 19.933594 47.566406 28.160156 55.738281 38.367188 55.738281 C 48.574219 55.738281 56.800781 47.566406 56.890625 37.378906 C 56.890625 37.433594 56.890625 37.488281 56.890625 37.546875 C 56.890625 47.808594 48.628906 56.066406 38.367188 56.066406 Z M 38.367188 56.066406 "/>
<path style=" stroke:none;fill-rule:nonzero;fill:rgb(12.941177%,12.941177%,12.941177%);fill-opacity:1;" d="M 38.367188 18.835938 C 28.007812 18.835938 19.65625 27.183594 19.65625 37.546875 C 19.65625 47.90625 28.007812 56.253906 38.367188 56.253906 C 48.730469 56.253906 57.078125 47.90625 57.078125 37.546875 C 57.078125 27.183594 48.730469 18.835938 38.367188 18.835938 Z M 38.367188 19.210938 C 48.527344 19.210938 56.703125 27.382812 56.703125 37.546875 C 56.703125 47.707031 48.527344 55.878906 38.367188 55.878906 C 28.207031 55.878906 20.03125 47.707031 20.03125 37.546875 C 20.03125 27.382812 28.207031 19.210938 38.367188 19.210938 Z M 38.367188 19.210938 "/>
<path style=" stroke:none;fill-rule:nonzero;fill:url(#linear4);" d="M 33.074219 32.253906 C 32.34375 32.253906 31.753906 32.84375 31.753906 33.574219 L 31.753906 41.515625 C 31.753906 42.246094 32.34375 42.835938 33.074219 42.835938 L 34.398438 42.835938 C 35.132812 42.835938 35.722656 42.246094 35.722656 41.515625 L 35.722656 38.867188 L 41.015625 38.867188 L 41.015625 41.515625 C 41.015625 42.246094 41.605469 42.835938 42.335938 42.835938 L 43.660156 42.835938 C 44.394531 42.835938 44.984375 42.246094 44.984375 41.515625 L 44.984375 33.574219 C 44.984375 32.84375 44.394531 32.253906 43.660156 32.253906 L 42.335938 32.253906 C 41.605469 32.253906 41.015625 32.84375 41.015625 33.574219 L 41.015625 36.222656 L 35.722656 36.222656 L 35.722656 33.574219 C 35.722656 32.84375 35.132812 32.253906 34.398438 32.253906 Z M 33.074219 32.253906 "/>
<path style=" stroke:none;fill-rule:nonzero;fill:rgb(100%,100%,100%);fill-opacity:0.890323;" d="M 33.074219 32.253906 C 32.34375 32.253906 31.753906 32.84375 31.753906 33.574219 L 31.753906 34.070312 C 31.753906 33.339844 32.34375 32.75 33.074219 32.75 L 34.398438 32.75 C 35.132812 32.75 35.722656 33.339844 35.722656 34.070312 L 35.722656 33.574219 C 35.722656 32.84375 35.132812 32.253906 34.398438 32.253906 Z M 42.335938 32.253906 C 41.605469 32.253906 41.015625 32.84375 41.015625 33.574219 L 41.015625 34.070312 C 41.015625 33.339844 41.605469 32.75 42.335938 32.75 L 43.660156 32.75 C 44.394531 32.75 44.984375 33.339844 44.984375 34.070312 L 44.984375 33.574219 C 44.984375 32.84375 44.394531 32.253906 43.660156 32.253906 Z M 35.722656 36.222656 L 35.722656 36.71875 L 41.015625 36.71875 L 41.015625 36.222656 Z M 35.722656 36.222656 "/>
<path style=" stroke:none;fill-rule:nonzero;fill:rgb(0%,0%,0%);fill-opacity:0.235294;" d="M 35.722656 38.867188 L 35.722656 39.53125 L 41.015625 39.53125 L 41.015625 38.867188 Z M 31.753906 41.515625 L 31.753906 42.175781 C 31.753906 42.910156 32.34375 43.5 33.074219 43.5 L 34.398438 43.5 C 35.132812 43.5 35.722656 42.910156 35.722656 42.175781 L 35.722656 41.515625 C 35.722656 42.246094 35.132812 42.835938 34.398438 42.835938 L 33.074219 42.835938 C 32.34375 42.835938 31.753906 42.246094 31.753906 41.515625 Z M 41.015625 41.515625 L 41.015625 42.175781 C 41.015625 42.910156 41.605469 43.5 42.335938 43.5 L 43.660156 43.5 C 44.394531 43.5 44.984375 42.910156 44.984375 42.175781 L 44.984375 41.515625 C 44.984375 42.246094 44.394531 42.835938 43.660156 42.835938 L 42.335938 42.835938 C 41.605469 42.835938 41.015625 42.246094 41.015625 41.515625 Z M 41.015625 41.515625 "/>
<path style="fill:none;stroke-width:11.338583;stroke-linecap:square;stroke-linejoin:bevel;stroke:rgb(12.941177%,12.941177%,12.941177%);stroke-opacity:1;stroke-miterlimit:4;" d="M 999.943933 975.14315 C 977.859426 975.14315 960.026483 992.976094 960.026483 1015.0606 L 960.026483 1255.155795 C 960.026483 1277.240302 977.859426 1295.073245 999.943933 1295.073245 L 1039.979482 1295.073245 C 1062.182087 1295.073245 1080.015031 1277.240302 1080.015031 1255.155795 L 1080.015031 1175.084697 L 1240.039128 1175.084697 L 1240.039128 1255.155795 C 1240.039128 1277.240302 1257.872071 1295.073245 1279.956578 1295.073245 L 1319.992127 1295.073245 C 1342.194732 1295.073245 1360.027676 1277.240302 1360.027676 1255.155795 L 1360.027676 1015.0606 C 1360.027676 992.976094 1342.194732 975.14315 1319.992127 975.14315 L 1279.956578 975.14315 C 1257.872071 975.14315 1240.039128 992.976094 1240.039128 1015.0606 L 1240.039128 1095.131698 L 1080.015031 1095.131698 L 1080.015031 1015.0606 C 1080.015031 992.976094 1062.182087 975.14315 1039.979482 975.14315 Z M 999.943933 975.14315 " transform="matrix(0.0330761,0,0,0.0330761,0,0)"/>
</g>
</svg>
